X: 031
T: The Kentish Volunteers
%R: reel
M: 2/4
L: 1/8
Z: 2014 John Chambers <jc:trillian.mit.edu>
B: Chas & Sam Thompson "Twenty Four Country Dances for the Year 1802", London 1802, p.3 #1
F: http://folkopedia.efdss.org/images/4/41/Thompson_24_1802.PDF
K: G
|:\
FGAd | BGGB | AFFA | GFE2 |\
FGAd | BGGB | ceAc | d2D2 :|
|:\
fddf | eca2 | dBBd | cAf2 |\
BGGB | AFd2 | ceAc | d2D2 :|
% - - - - - - - - - - - - - - - - - - - - - - - - -
%%begintext align
%% Hand round three on the laydes Side
%% The Same on the Gentleman lead down
%% the Middle up again & turn your Partners
%%endtext
% - - - - - - - - - - - - - - - - - - - - - - - - -

%%sep 1 1 500
%%sep 1 1 500
